X:187
T:Miss Stewart's Fancy
R:Jig
M:6/8
L:1/8
C:Abr. Mackintosh
K:A % 3 sharps
f|"A"e2c cavg|"Bm"fdB B2f|"A"ecA Ace|"D"f3 f2g|"A"agf edc|\
"Bm"fdB B2f/2g/2|"A"aec "E7"dcB|"A"A3 A2:||:E|"A"A2A AcB|"D"AFF F2G|\
"A"AcB Ace|"D"f3 f2g|"A"agf edc|"Bm"fdB B2f/2g/2|"A"aec "E7"dBg|"a3 a2:||

%  <A name="D1X188"></A>
